icons/gpodder.svg

<svg width="32" height="32" viewBox="0 0 32 32" fill="none" xmlns="http://www.w3.org/2000/svg">
<path d="M3.36667 28.6333C0.913335 26.18 0 22.18 0 16C0 9.82 0.913335 5.82 3.36667 3.36667C5.82 0.913333 9.82 0 16 0C22.18 0 26.18 0.913333 28.6333 3.36667C31.0867 5.82 32 9.82 32 16C32 22.18 31.0867 26.18 28.6333 28.6333C26.18 31.0867 22.18 32 16 32C9.82 32 5.82 31.0867 3.36667 28.6333Z" fill="white"/>
<path opacity="0.7" d="M27.9268 15.9756C27.9268 17.5445 27.6178 19.098 27.0174 20.5474C26.4171 21.9969 25.5371 23.3139 24.4277 24.4232C23.3183 25.5326 22.0014 26.4126 20.5519 27.013C19.1025 27.6133 17.5489 27.9223 15.9801 27.9223C14.4112 27.9223 12.8577 27.6133 11.4083 27.013C9.95881 26.4126 8.64181 25.5326 7.53245 24.4232C6.42309 23.3139 5.5431 21.9969 4.94272 20.5474C4.34234 19.098 4.03333 17.5445 4.03333 15.9756C4.03333 12.8085 5.29144 9.77116 7.5309 7.5317C9.77036 5.29223 12.8077 4.03412 15.9748 4.03412C19.1419 4.03412 22.1792 5.29223 24.4187 7.5317C26.6582 9.77116 27.9163 12.8085 27.9163 15.9756H27.9268Z" fill="#E0C4F4" stroke="#CFA2EE" stroke-width="0.580708"/>
<path opacity="0.7" d="M25.5842 15.5992C25.5842 16.856 25.3366 18.1006 24.8557 19.2617C24.3747 20.4229 23.6697 21.4779 22.781 22.3667C21.8923 23.2554 20.8372 23.9603 19.6761 24.4413C18.5149 24.9223 17.2704 25.1698 16.0136 25.1698C14.7567 25.1698 13.5122 24.9223 12.3511 24.4413C11.1899 23.9603 10.1348 23.2554 9.24613 22.3667C8.35741 21.4779 7.65245 20.4229 7.17148 19.2617C6.69051 18.1006 6.44296 16.856 6.44296 15.5992C6.44296 13.0621 7.45084 10.6288 9.24489 8.83476C11.0389 7.04072 13.4722 6.03284 16.0093 6.03284C18.5465 6.03284 20.9797 7.04072 22.7738 8.83476C24.5678 10.6288 25.5757 13.0621 25.5757 15.5992H25.5842Z" fill="#BD80E8" stroke="#A34EDE" stroke-width="0.583625"/>
<path opacity="0.7" d="M22.5158 14.5308C22.5158 15.3865 22.3473 16.2338 22.0198 17.0243C21.6924 17.8149 21.2124 18.5332 20.6074 19.1382C20.0023 19.7433 19.284 20.2232 18.4935 20.5507C17.703 20.8781 16.8557 21.0467 16 21.0467C15.1443 21.0467 14.297 20.8781 13.5065 20.5507C12.716 20.2232 11.9977 19.7433 11.3926 19.1382C10.7876 18.5332 10.3076 17.8149 9.98015 17.0243C9.6527 16.2338 9.48416 15.3865 9.48416 14.5308C9.48416 13.6752 9.6527 12.8279 9.98015 12.0373C10.3076 11.2468 10.7876 10.5285 11.3926 9.92346C11.9977 9.31841 12.716 8.83845 13.5065 8.511C14.297 8.18355 15.1443 8.01501 16 8.01501C16.8557 8.01501 17.703 8.18355 18.4935 8.511C19.284 8.83845 20.0023 9.31841 20.6074 9.92346C21.2124 10.5285 21.6924 11.2468 22.0198 12.0373C22.3473 12.8279 22.5158 13.6752 22.5158 14.5308Z" fill="#A34EDE" stroke="#431266" stroke-width="0.583333"/>
<path opacity="0.4" d="M16.0273 4.69043C9.82957 4.69043 4.83548 9.67396 4.83548 15.8823C4.83548 22.0694 9.82957 27.0635 16.0273 27.0635C22.2251 27.0635 27.2191 22.0694 27.2191 15.8717C27.2191 9.67396 22.2251 4.67987 16.0273 4.67987V4.69043Z" stroke="url(#paint0_linear_119_93245)" stroke-width="0.580708"/>
<path opacity="0.4" d="M16.0618 6.73196C14.8876 6.69492 13.718 6.89414 12.6222 7.31778C11.5265 7.74143 10.527 8.38087 9.68313 9.19817C8.83925 10.0155 8.16814 10.9939 7.70963 12.0756C7.25113 13.1572 7.01458 14.3199 7.01401 15.4947C7.01344 16.6694 7.24887 17.8324 7.70633 18.9144C8.16379 19.9965 8.83396 20.9756 9.67706 21.7937C10.5202 22.6118 11.519 23.2522 12.6143 23.6769C13.7097 24.1017 14.8791 24.302 16.0534 24.2661C18.3315 24.1964 20.493 23.2428 22.0801 21.6071C23.6673 19.9715 24.5555 17.7823 24.5566 15.5031C24.5577 13.224 23.6716 11.0339 22.086 9.39673C20.5004 7.75954 18.3398 6.80382 16.0618 6.73196Z" stroke="url(#paint1_linear_119_93245)" stroke-width="0.583625"/>
<path opacity="0.4" d="M16.0975 8.67401C14.5613 8.67401 13.088 9.28427 12.0017 10.3705C10.9155 11.4568 10.3052 12.9301 10.3052 14.4663C10.3052 16.0026 10.9155 17.4759 12.0017 18.5621C13.088 19.6484 14.5613 20.2587 16.0975 20.2587C17.6338 20.2587 19.1071 19.6484 20.1933 18.5621C21.2796 17.4759 21.8899 16.0026 21.8899 14.4663C21.8899 12.9301 21.2796 11.4568 20.1933 10.3705C19.1071 9.28427 17.6338 8.67401 16.0975 8.67401Z" stroke="url(#paint2_linear_119_93245)" stroke-width="0.583275"/>
<g opacity="0.5" filter="url(#filter0_f_119_93245)">
<path d="M13.025 19.7108C12.8033 17.8792 12.3367 7.88668 15.0375 7.78751C17.7325 7.68251 18.45 16.905 18.7125 19.3375C18.975 21.7758 18.1117 23.9633 23.91 22.6275C26.4883 22.0325 27.9467 20.6092 27.7658 24.1617C27.5908 27.72 21.1683 27.8192 18.1292 28.07C9.98001 28.5308 3.78501 27.825 3.86667 25.8067C3.94834 23.7942 4.05334 22.9483 5.54667 23.2283C15.5625 25.0542 13.2467 21.4958 13.0308 19.7108H13.025Z" fill="black"/>
</g>
<path d="M13.3665 19.9909C13.1404 18.165 12.6763 8.21337 15.3835 8.1142C18.0908 8.01503 18.8107 17.1967 19.0725 19.6234C19.3343 22.05 18.4656 24.2259 24.2907 22.89C26.8789 22.3067 28.3367 20.8834 28.1582 24.4184C27.9797 27.9592 21.5358 28.0642 18.4894 28.3092C10.3082 28.77 4.09045 28.0642 4.1678 26.0634C4.2511 24.0567 4.3582 23.2167 5.8576 23.4909C15.9131 25.3109 13.5926 21.7642 13.3665 19.9909Z" fill="#75507B" stroke="#3D2A3F" stroke-width="0.583246"/>
<path opacity="0.4" d="M15.4014 8.77336C15.2705 8.77336 15.1872 8.82002 15.0265 9.00669C14.8659 9.19919 14.6755 9.53752 14.5267 9.97502C14.2292 10.85 14.0448 12.1275 13.9496 13.4575C13.7592 16.1234 13.9377 19.0867 14.0448 19.9092C14.0864 20.2417 14.2768 20.7959 14.378 21.4259C14.4791 22.05 14.5029 22.8142 14.021 23.4675C13.545 24.115 12.6584 24.5 11.3673 24.6167C10.0702 24.7275 8.27327 24.5992 5.73262 24.1384C5.41727 24.08 5.25662 24.1034 5.19712 24.1209C5.13167 24.1384 5.13167 24.1209 5.07812 24.2142C4.97697 24.4067 4.88177 25.0775 4.84012 26.075C4.84012 26.1567 4.85797 26.215 4.95317 26.3259C5.04242 26.4425 5.23282 26.5825 5.52437 26.7284C6.11937 27.02 7.08922 27.2767 8.33277 27.4575C10.8199 27.8192 14.378 27.8834 18.4299 27.6559H18.4478C20.0007 27.5392 22.3272 27.44 24.2312 26.9675C25.1832 26.7284 26.0281 26.3842 26.5933 25.9642C26.8593 25.7876 27.0788 25.5517 27.2339 25.2759C27.389 25.0001 27.4754 24.6923 27.4858 24.3775C27.5413 23.8694 27.503 23.3557 27.3728 22.8609C27.3014 22.6859 27.3966 22.7734 27.2419 22.7734C26.9384 22.7734 25.8198 23.2225 24.4335 23.5375C22.946 23.8817 21.8571 24.0217 20.9944 23.9575C20.1376 23.8934 19.4652 23.59 19.0606 23.0825C18.7107 22.5885 18.5181 22.0039 18.5073 21.4025C18.4537 20.8309 18.4716 20.2475 18.4121 19.6934C18.2752 18.4567 18.0253 15.5809 17.4839 13.055C17.2747 11.9437 16.9312 10.8608 16.4605 9.82919C16.314 9.51187 16.1127 9.22177 15.8655 8.97169C15.681 8.80836 15.5442 8.76752 15.4014 8.77336Z" stroke="white" stroke-width="0.583246"/>
<path opacity="0.2" fill-rule="evenodd" clip-rule="evenodd" d="M26.6925 23.1758C20.935 26.2675 14.215 24.9142 5.15582 26.4075C5.18499 26.4192 5.19082 26.3258 5.21416 26.3375C5.80916 26.5883 6.78916 26.915 8.03166 27.0725C10.5167 27.3875 14.2967 27.5567 18.3567 27.3583C21.88 27.1833 25.3742 26.7167 26.3833 25.6842C28.0983 24.2375 26.4825 22.4992 26.6925 23.1758Z" fill="white"/>
<path d="M15.422 16.1548C15.263 19.0966 13.8355 21.4203 12.2339 21.3475C10.6323 21.2747 9.46235 18.8329 9.62137 15.8911C9.78039 12.9493 11.208 10.6234 12.8096 10.6962C14.4112 10.769 15.5811 13.213 15.422 16.1548Z" fill="url(#paint3_radial_119_93245)" stroke="black" stroke-width="0.584435"/>
<path d="M13.6002 17.9836C13.5477 19.0598 13.0513 19.9232 12.5 19.8969C11.9488 19.8707 11.5387 18.9642 11.5912 17.8879C11.6437 16.8117 12.1395 15.9603 12.6908 15.9866C13.242 16.0128 13.6527 16.9073 13.6002 17.9836Z" fill="url(#paint4_radial_119_93245)"/>
<path d="M22.7081 15.397C23.0261 18.3388 21.985 20.8396 20.3834 20.9852C18.7818 21.1308 17.2254 18.8661 16.9074 15.9243C16.5894 12.9825 17.6303 10.4795 19.2319 10.3339C20.8335 10.1883 22.39 12.4552 22.7081 15.397Z" fill="url(#paint5_radial_119_93245)" stroke="black" stroke-width="0.586612"/>
<path d="M21.2458 17.8028C21.0936 18.8685 20.5216 19.6844 19.9782 19.6109C19.4349 19.5374 19.1133 18.6007 19.2655 17.5349C19.4178 16.4692 19.988 15.6652 20.5314 15.7387C21.0748 15.8122 21.3981 16.737 21.2458 17.8028Z" fill="url(#paint6_radial_119_93245)"/>
<path opacity="0.5" d="M15.422 16.1548C15.263 19.0966 13.8355 21.4203 12.2339 21.3475C10.6323 21.2747 9.46235 18.8329 9.62137 15.8911C9.78039 12.9493 11.208 10.6234 12.8096 10.6962C14.4112 10.769 15.5811 13.213 15.422 16.1548Z" stroke="url(#paint7_linear_119_93245)" stroke-width="0.584435"/>
<path opacity="0.5" d="M22.7081 15.397C23.0261 18.3388 21.985 20.8396 20.3834 20.9852C18.7818 21.1308 17.2254 18.8661 16.9074 15.9243C16.5894 12.9825 17.6303 10.4795 19.2319 10.3339C20.8335 10.1883 22.39 12.4552 22.7081 15.397Z" stroke="url(#paint8_linear_119_93245)" stroke-width="0.586612"/>
<path opacity="0.95" fill-rule="evenodd" clip-rule="evenodd" d="M13.1775 18.939C13.1543 19.0984 13.0675 19.242 12.9363 19.3383C12.805 19.4345 12.64 19.4756 12.4775 19.4524C12.3151 19.4292 12.1685 19.3436 12.0701 19.2145C11.9716 19.0854 11.9293 18.9234 11.9525 18.764C11.9757 18.6047 12.0625 18.4611 12.1938 18.3648C12.3251 18.2685 12.4901 18.2275 12.6525 18.2507C12.815 18.2739 12.9616 18.3595 13.06 18.4886C13.1585 18.6176 13.2007 18.7797 13.1775 18.939Z" fill="black"/>
<path opacity="0.95" fill-rule="evenodd" clip-rule="evenodd" d="M20.7586 18.6675C20.6658 18.8006 20.5226 18.8925 20.3607 18.9232C20.1988 18.9538 20.0314 18.9206 19.8952 18.8309C19.7591 18.7411 19.6654 18.6022 19.6348 18.4447C19.6041 18.2872 19.6391 18.1239 19.7319 17.9909C19.8247 17.8578 19.9678 17.7659 20.1297 17.7352C20.2917 17.7046 20.4591 17.7378 20.5952 17.8275C20.7314 17.9173 20.8251 18.0562 20.8557 18.2137C20.8863 18.3712 20.8514 18.5345 20.7586 18.6675Z" fill="black"/>
<defs>
<filter id="filter0_f_119_93245" x="2.75754" y="6.67829" width="26.1317" height="22.6355" filterUnits="userSpaceOnUse" color-interpolation-filters="sRGB">
<feFlood flood-opacity="0" result="BackgroundImageFix"/>
<feBlend mode="normal" in="SourceGraphic" in2="BackgroundImageFix" result="shape"/>
<feGaussianBlur stdDeviation="0.554167" result="effect1_foregroundBlur_119_93245"/>
</filter>
<linearGradient id="paint0_linear_119_93245" x1="6.98938" y1="4.37368" x2="20.8947" y2="24.16" gradientUnits="userSpaceOnUse">
<stop stop-color="white"/>
<stop offset="1" stop-color="white" stop-opacity="0"/>
</linearGradient>
<linearGradient id="paint1_linear_119_93245" x1="26.7193" y1="7.80617" x2="8.3563" y2="21.5171" gradientUnits="userSpaceOnUse">
<stop stop-color="white"/>
<stop offset="1" stop-color="white" stop-opacity="0"/>
</linearGradient>
<linearGradient id="paint2_linear_119_93245" x1="9.71616" y1="6.87799" x2="20.5789" y2="18.1566" gradientUnits="userSpaceOnUse">
<stop stop-color="white"/>
<stop offset="1" stop-color="white" stop-opacity="0"/>
</linearGradient>
<radialGradient id="paint3_radial_119_93245" cx="0" cy="0" r="1" gradientUnits="userSpaceOnUse" gradientTransform="translate(12.4802 16.0978) rotate(2.60256) scale(20.9035 5.90154)">
<stop stop-color="white"/>
<stop offset="1" stop-color="#E5E5E5"/>
</radialGradient>
<radialGradient id="paint4_radial_119_93245" cx="0" cy="0" r="1" gradientUnits="userSpaceOnUse" gradientTransform="translate(13.036 17.8997) rotate(-162.029) scale(3.58443 1.97147)">
<stop/>
<stop offset="1" stop-color="#6E6E6E"/>
</radialGradient>
<radialGradient id="paint5_radial_119_93245" cx="0" cy="0" r="1" gradientUnits="userSpaceOnUse" gradientTransform="translate(19.7787 15.7406) rotate(-5.19443) scale(20.968 5.92664)">
<stop stop-color="white"/>
<stop offset="1" stop-color="#E5E5E5"/>
</radialGradient>
<radialGradient id="paint6_radial_119_93245" cx="0" cy="0" r="1" gradientUnits="userSpaceOnUse" gradientTransform="translate(20.695 17.6708) rotate(-156.946) scale(3.55702 1.97206)">
<stop/>
<stop offset="1" stop-color="#6E6E6E"/>
</radialGradient>
<linearGradient id="paint7_linear_119_93245" x1="12.6286" y1="10.9043" x2="12.6071" y2="15.2602" gradientUnits="userSpaceOnUse">
<stop stop-color="white"/>
<stop offset="1" stop-color="white" stop-opacity="0"/>
</linearGradient>
<linearGradient id="paint8_linear_119_93245" x1="19.618" y1="10.6693" x2="19.6299" y2="14.6569" gradientUnits="userSpaceOnUse">
<stop stop-color="white"/>
<stop offset="1" stop-color="white" stop-opacity="0"/>
</linearGradient>
</defs>
</svg>

<svg xmlns="http://www.w3.org/2000/svg" width="32" height="32" fill="none" viewBox="0 0 32 32">
  <path fill="#fff" d="M3.367 28.633C.913 26.18 0 22.18 0 16 0 9.82.913 5.82 3.367 3.367 5.82.913 9.82 0 16 0c6.18 0 10.18.913 12.633 3.367C31.087 5.82 32 9.82 32 16c0 6.18-.913 10.18-3.367 12.633C26.18 31.087 22.18 32 16 32c-6.18 0-10.18-.913-12.633-3.367Z"/>
  <path fill="#E0C4F4" stroke="#CFA2EE" stroke-width=".581" d="M27.927 15.976A11.947 11.947 0 1 1 7.53 7.531a11.941 11.941 0 0 1 20.385 8.444h.01Z" opacity=".7"/>
  <path fill="#BD80E8" stroke="#A34EDE" stroke-width=".584" d="M25.584 15.6a9.572 9.572 0 0 1-19.141 0 9.566 9.566 0 0 1 19.133 0h.008Z" opacity=".7"/>
  <path fill="#A34EDE" stroke="#431266" stroke-width=".583" d="M22.516 14.53a6.515 6.515 0 1 1-13.03.001 6.515 6.515 0 0 1 13.03 0Z" opacity=".7"/>
  <path stroke="url(#a)" stroke-width=".581" d="M16.027 4.69A11.164 11.164 0 0 0 4.835 15.882a11.168 11.168 0 0 0 11.192 11.182A11.17 11.17 0 0 0 27.22 15.872 11.17 11.17 0 0 0 16.027 4.68v.01Z" opacity=".4"/>
  <path stroke="url(#b)" stroke-width=".584" d="M16.062 6.732a8.771 8.771 0 1 0-.553 17.534 8.771 8.771 0 0 0 .553-17.534Z" opacity=".4"/>
  <path stroke="url(#c)" stroke-width=".583" d="M16.098 8.674a5.792 5.792 0 1 0 0 11.585 5.792 5.792 0 0 0 0-11.585Z" opacity=".4"/>
  <g filter="url(#d)" opacity=".5">
    <path fill="#000" d="M13.025 19.71c-.222-1.83-.688-11.823 2.012-11.922 2.696-.105 3.413 9.117 3.675 11.55.263 2.438-.6 4.625 5.198 3.29 2.578-.596 4.037-2.019 3.856 1.534-.175 3.558-6.598 3.657-9.637 3.908-8.149.46-14.344-.245-14.262-2.263.081-2.013.186-2.859 1.68-2.579 10.015 1.826 7.7-1.732 7.484-3.517h-.006Z"/>
  </g>
  <path fill="#75507B" stroke="#3D2A3F" stroke-width=".583" d="M13.367 19.99c-.227-1.825-.69-11.777 2.017-11.876 2.707-.1 3.427 9.083 3.689 11.51.261 2.426-.607 4.602 5.218 3.266 2.588-.583 4.046-2.007 3.867 1.528-.178 3.541-6.622 3.646-9.669 3.891-8.18.46-14.399-.245-14.321-2.246.083-2.006.19-2.846 1.69-2.572 10.055 1.82 7.735-1.727 7.509-3.5Z"/>
  <path stroke="#fff" stroke-width=".583" d="M15.401 8.773c-.13 0-.214.047-.374.234-.161.192-.352.53-.5.968-.298.875-.482 2.152-.577 3.482-.19 2.666-.012 5.63.095 6.452.041.333.232.887.333 1.517.101.624.125 1.388-.357 2.042-.476.647-1.363 1.032-2.654 1.149-1.297.11-3.094-.018-5.634-.479-.316-.058-.476-.035-.536-.017-.065.017-.065 0-.119.093-.101.193-.196.864-.238 1.861 0 .082.018.14.113.25.09.117.28.258.571.403.595.292 1.565.549 2.809.73 2.487.361 6.045.425 10.097.198h.018c1.553-.117 3.88-.216 5.783-.688.952-.24 1.797-.584 2.362-1.004a2.01 2.01 0 0 0 .64-.688c.156-.276.242-.584.253-.898a4.178 4.178 0 0 0-.113-1.517c-.072-.175.023-.088-.131-.088-.304 0-1.422.45-2.809.765-1.487.344-2.576.484-3.439.42-.857-.065-1.529-.368-1.933-.875a2.999 2.999 0 0 1-.554-1.68c-.053-.572-.036-1.155-.095-1.71-.137-1.236-.387-4.112-.928-6.638a14.013 14.013 0 0 0-1.024-3.226 3.018 3.018 0 0 0-.595-.857c-.184-.164-.32-.204-.464-.199Z" opacity=".4"/>
  <path fill="#fff" fill-rule="evenodd" d="M26.693 23.176c-5.758 3.091-12.478 1.738-21.537 3.232.03.011.035-.082.058-.07.595.25 1.575.577 2.818.735 2.485.314 6.265.484 10.325.285 3.523-.175 7.017-.641 8.026-1.674 1.715-1.447.1-3.185.31-2.508Z" clip-rule="evenodd" opacity=".2"/>
  <path fill="url(#e)" stroke="#000" stroke-width=".584" d="M15.422 16.155c-.159 2.941-1.587 5.265-3.188 5.192-1.602-.072-2.772-2.514-2.613-5.456.16-2.942 1.587-5.268 3.189-5.195 1.601.073 2.771 2.517 2.612 5.459Z"/>
  <path fill="url(#f)" d="M13.6 17.984c-.052 1.076-.549 1.94-1.1 1.913-.551-.026-.961-.933-.909-2.01.053-1.075.549-1.927 1.1-1.9.551.026.962.92.91 1.997Z"/>
  <path fill="url(#g)" stroke="#000" stroke-width=".587" d="M22.708 15.397c.318 2.942-.723 5.443-2.325 5.588-1.601.146-3.158-2.119-3.476-5.06-.318-2.943.723-5.446 2.325-5.591 1.602-.146 3.158 2.121 3.476 5.063Z"/>
  <path fill="url(#h)" d="M21.246 17.803c-.152 1.065-.724 1.881-1.268 1.808-.543-.074-.865-1.01-.713-2.076.153-1.066.723-1.87 1.266-1.796.544.073.867.998.715 2.064Z"/>
  <path stroke="url(#i)" stroke-width=".584" d="M15.422 16.155c-.159 2.941-1.587 5.265-3.188 5.192-1.602-.072-2.772-2.514-2.613-5.456.16-2.942 1.587-5.268 3.189-5.195 1.601.073 2.771 2.517 2.612 5.459Z" opacity=".5"/>
  <path stroke="url(#j)" stroke-width=".587" d="M22.708 15.397c.318 2.942-.723 5.443-2.325 5.588-1.601.146-3.158-2.119-3.476-5.06-.318-2.943.723-5.446 2.325-5.591 1.602-.146 3.158 2.121 3.476 5.063Z" opacity=".5"/>
  <path fill="#000" fill-rule="evenodd" d="M13.178 18.939a.603.603 0 0 1-.242.4.627.627 0 0 1-.866-.124.6.6 0 0 1 .124-.85.626.626 0 0 1 .866.124.6.6 0 0 1 .117.45Zm7.581-.271a.633.633 0 0 1-.863.163.594.594 0 0 1-.163-.84.632.632 0 0 1 .863-.163.594.594 0 0 1 .163.84Z" clip-rule="evenodd" opacity=".95"/>
  <defs>
    <linearGradient id="a" x1="6.989" x2="20.895" y1="4.374" y2="24.16" gradientUnits="userSpaceOnUse">
      <stop stop-color="#fff"/>
      <stop offset="1" stop-color="#fff" stop-opacity="0"/>
    </linearGradient>
    <linearGradient id="b" x1="26.719" x2="8.356" y1="7.806" y2="21.517" gradientUnits="userSpaceOnUse">
      <stop stop-color="#fff"/>
      <stop offset="1" stop-color="#fff" stop-opacity="0"/>
    </linearGradient>
    <linearGradient id="c" x1="9.716" x2="20.579" y1="6.878" y2="18.157" gradientUnits="userSpaceOnUse">
      <stop stop-color="#fff"/>
      <stop offset="1" stop-color="#fff" stop-opacity="0"/>
    </linearGradient>
    <linearGradient id="i" x1="12.629" x2="12.607" y1="10.904" y2="15.26" gradientUnits="userSpaceOnUse">
      <stop stop-color="#fff"/>
      <stop offset="1" stop-color="#fff" stop-opacity="0"/>
    </linearGradient>
    <linearGradient id="j" x1="19.618" x2="19.63" y1="10.669" y2="14.657" gradientUnits="userSpaceOnUse">
      <stop stop-color="#fff"/>
      <stop offset="1" stop-color="#fff" stop-opacity="0"/>
    </linearGradient>
    <radialGradient id="e" cx="0" cy="0" r="1" gradientTransform="matrix(20.88194 .94918 -.26797 5.89545 12.48 16.098)" gradientUnits="userSpaceOnUse">
      <stop stop-color="#fff"/>
      <stop offset="1" stop-color="#E5E5E5"/>
    </radialGradient>
    <radialGradient id="f" cx="0" cy="0" r="1" gradientTransform="rotate(-162.029 7.933 7.92) scale(3.58443 1.97147)" gradientUnits="userSpaceOnUse">
      <stop/>
      <stop offset="1" stop-color="#6E6E6E"/>
    </radialGradient>
    <radialGradient id="g" cx="0" cy="0" r="1" gradientTransform="matrix(20.88189 -1.89835 .53657 5.9023 19.779 15.74)" gradientUnits="userSpaceOnUse">
      <stop stop-color="#fff"/>
      <stop offset="1" stop-color="#E5E5E5"/>
    </radialGradient>
    <radialGradient id="h" cx="0" cy="0" r="1" gradientTransform="matrix(-3.27294 -1.39292 .77226 -1.81456 20.695 17.67)" gradientUnits="userSpaceOnUse">
      <stop/>
      <stop offset="1" stop-color="#6E6E6E"/>
    </radialGradient>
    <filter id="d" width="26.132" height="22.636" x="2.758" y="6.678" color-interpolation-filters="sRGB" filterUnits="userSpaceOnUse">
      <feFlood flood-opacity="0" result="BackgroundImageFix"/>
      <feBlend in="SourceGraphic" in2="BackgroundImageFix" result="shape"/>
      <feGaussianBlur result="effect1_foregroundBlur_119_93245" stdDeviation=".554"/>
    </filter>
  </defs>
</svg>
